resources/icons/20px/many-to-one.svg

<svg width="20" height="20" viewBox="0 0 20 20" fill="none" xmlns="http://www.w3.org/2000/svg">
<path fill-rule="evenodd" clip-rule="evenodd" d="M3 2C2.44772 2 2 2.44772 2 3C2 3.55228 2.44772 4 3 4C3.55228 4 4 3.55228 4 3C4 2.44772 3.55228 2 3 2ZM3 6C4.29568 6 5.39952 5.1786 5.81919 4.02813C6.30663 4.0667 6.90567 4.1581 7.48687 4.3746C8.43371 4.7273 9.25999 5.3754 9.51875 6.69275C9.84177 8.3372 10.7532 9.36818 11.7827 10C10.7532 10.6318 9.84177 11.6628 9.51875 13.3073C9.25999 14.6246 8.43371 15.2727 7.48687 15.6254C6.90567 15.8419 6.30663 15.9333 5.81919 15.9719C5.39952 14.8214 4.29568 14 3 14C1.34315 14 0 15.3431 0 17C0 18.6569 1.34315 20 3 20C4.31513 20 5.43261 19.1538 5.83762 17.9761C6.47117 17.9341 7.32916 17.8184 8.18501 17.4996C9.58713 16.9773 11.0525 15.8754 11.4812 13.6927C11.74 12.3754 12.5663 11.7273 13.5131 11.3746C13.7536 11.285 13.9972 11.2168 14.2346 11.165C14.6894 12.2432 15.7563 13 17 13C18.6569 13 20 11.6569 20 10C20 8.34315 18.6569 7 17 7C15.7563 7 14.6894 7.75681 14.2346 8.83502C13.9972 8.78315 13.7536 8.71499 13.5131 8.62541C12.5663 8.2727 11.74 7.62461 11.4812 6.30726C11.0525 4.12461 9.58713 3.0227 8.18501 2.50041C7.32916 2.1816 6.47118 2.06588 5.83762 2.02389C5.43261 0.846236 4.31513 0 3 0C1.34315 0 0 1.34315 0 3C0 4.65685 1.34315 6 3 6ZM16 10C16 10.5523 16.4477 11 17 11C17.5523 11 18 10.5523 18 10C18 9.44772 17.5523 9 17 9C16.4477 9 16 9.44772 16 10ZM2 17C2 16.4477 2.44772 16 3 16C3.55228 16 4 16.4477 4 17C4 17.5523 3.55228 18 3 18C2.44772 18 2 17.5523 2 17Z" fill="black"/>
</svg>

<svg xmlns="http://www.w3.org/2000/svg" viewBox="0 0 20 20">
  <path d="M3 2a1 1 0 1 0 0 2 1 1 0 0 0 0-2m0 4c1.296 0 2.4-.821 2.82-1.972.487.039 1.086.13 1.667.347.947.352 1.773 1 2.032 2.318.323 1.644 1.234 2.675 2.264 3.307-1.03.632-1.941 1.663-2.264 3.307-.259 1.318-1.085 1.966-2.032 2.318a6.2 6.2 0 0 1-1.668.347 3.001 3.001 0 1 0 .019 2.004c.633-.042 1.491-.158 2.347-.476 1.402-.523 2.867-1.625 3.296-3.807.259-1.318 1.085-1.966 2.032-2.318.24-.09.484-.158.722-.21a3 3 0 1 0 0-2.33 5 5 0 0 1-.722-.21c-.947-.352-1.773-1-2.032-2.318-.428-2.182-1.894-3.284-3.296-3.807-.856-.318-1.714-.434-2.347-.476A3.001 3.001 0 0 0 0 3a3 3 0 0 0 3 3m13 4a1 1 0 1 0 2 0 1 1 0 0 0-2 0M2 17a1 1 0 1 1 2 0 1 1 0 0 1-2 0"/>
</svg>
